icon/lg/spidermonkey-icon.svg

<?xml version="1.0" encoding="UTF-8"?>
<svg viewBox="0 0 256 213" version="1.1" xmlns="http://www.w3.org/2000/svg" xmlns:xlink="http://www.w3.org/1999/xlink" preserveAspectRatio="xMidYMid" height="1em" width="1em">
  <g>
    <path d="M73.8541651,0.0197460704 C65.8954972,-0.261602877 57.1469659,2.46619918 45.335484,8.03763407 C32.7593879,12.0853097 25.5643563,23.0221757 40.3471443,23.0147603 L39.988225,32.6385769 L30.6685517,36.2156105 L30.3217458,45.5657316 C30.3217458,45.5657316 28.8824607,56.4531614 40.7485849,55.8039347 C39.1915418,56.1676441 37.8874893,56.9269969 39.6291921,58.6692247 C42.8383741,61.8773289 47.0665381,60.8127919 62.3991245,61.169485 C77.7320396,61.5261321 79.3838007,78.5799791 79.3838007,78.5799791 C79.3838007,78.5799791 82.8275622,106.525677 82.3159755,133.755783 C65.7043771,124.916083 49.1188171,117.090548 43.9605258,118.218892 C32.5502097,120.71491 22.8024371,131.975741 32.5481847,148.167141 C41.4544376,162.963926 56.4920064,173.507492 71.6457996,183.012543 C63.1590515,196.703231 48.438114,207.718145 22.2369342,200.806346 C8.06431202,201.231313 -11.1493507,210.729533 8.14184246,211.275757 C45.4397929,214.305753 72.6396244,212.554958 88.9407265,194.875043 C89.0781346,194.743008 89.1945247,194.605446 89.3300291,194.473565 C89.284124,194.521159 89.2417501,194.5795 89.1961521,194.625559 C112.557144,209.16394 141.631712,213.669192 168.425514,207.741297 C169.737724,207.312799 173.990652,206.759481 173.632838,206.250841 C173.852537,206.27387 174.037846,206.309182 174.259542,206.333746 C174.379294,205.633349 201.006,209.191513 220.644972,201.229886 C239.673115,193.515946 252.092263,179.071846 254.723806,164.078943 C265.538733,102.461978 204.289855,97.5701403 196.262962,95.0696543 C190.136724,93.4081671 184.011406,91.7487833 177.885198,90.0874036 C174.409002,81.3948764 169.76909,72.8856318 163.832689,63.5822494 C160.057327,57.665654 155.591485,52.863282 150.741346,48.9519245 C150.753014,48.9611055 150.808899,48.9995184 150.819646,49.0102654 C150.819646,49.0102654 152.61917,43.3224169 159.470141,37.4275965 C160.853128,36.3246466 183.907605,18.7084087 225.833258,36.5458814 L228.78976,65.1192662 L247.836679,64.1339193 L245.537173,25.383078 C238.803237,17.4927995 181.636978,-6.22819751 140.356288,25.264861 C134.2949,30.5131615 130.495224,37.8208448 130.495224,37.8208448 C130.536676,37.8326204 130.593482,37.8684387 130.634935,37.891468 C123.677067,35.4099381 116.743932,34.0389733 110.444344,33.3046303 C110.440122,33.281601 110.43633,33.2570364 110.432568,33.2340071 C110.432568,33.2340071 102.419083,11.1717989 87.8207963,3.81502677 C83.1242072,1.44839321 78.6293378,0.194206829 73.854142,0.0255141422 L73.8541651,0.0197460704 Z M182.149718,103.235655 C182.339786,103.974895 182.519722,104.717667 182.69106,105.4622 C182.520182,104.714669 182.335948,103.9742 182.149718,103.235655 L182.149718,103.235655 Z M114.490837,104.969434 C120.68596,115.373959 125.20503,124.688308 127.174614,136.22566 C126.205234,143.230923 124.741143,150.16461 122.624274,156.702168 C122.624274,156.702168 117.347146,153.50785 109.770189,149.085826 C111.166225,140.264258 112.1169,130.79701 113.243755,120.481945 C113.618211,115.464019 114.055307,110.177587 114.490868,104.969434 L114.490837,104.969434 Z M183.372481,108.668062 C183.417004,108.906953 183.481487,109.141238 183.524475,109.380282 C183.781635,110.714446 183.992737,112.09384 184.230092,113.43173 C190.86141,115.297349 197.521683,117.12024 204.153,118.985859 C204.153,118.985859 236.956563,125.377806 231.953862,158.460562 C227.243757,189.608273 180.243199,187.149926 180.40932,186.109293 C186.037846,150.941696 187.145863,127.989175 183.372343,108.668062 L183.372481,108.668062 Z" fill="#000000"/>
  </g>
</svg>

<svg width="256" height="213" xmlns="http://www.w3.org/2000/svg" preserveAspectRatio="xMidYMid"><path d="M73.854.02c-7.959-.282-16.707 2.446-28.519 8.018-12.576 4.047-19.77 14.984-4.988 14.977l-.359 9.624-9.32 3.577-.346 9.35s-1.44 10.887 10.427 10.238c-1.557.364-2.862 1.123-1.12 2.865 3.21 3.208 7.438 2.144 22.77 2.5 15.333.357 16.985 17.411 16.985 17.411s3.444 27.946 2.932 55.176c-16.612-8.84-33.197-16.665-38.355-15.537-11.41 2.496-21.159 13.757-11.413 29.948 8.906 14.797 23.944 25.34 39.098 34.846-8.487 13.69-23.208 24.705-49.41 17.793-14.172.425-33.385 9.924-14.094 10.47 37.298 3.03 64.498 1.279 80.799-16.401.137-.132.254-.27.389-.401-.046.047-.088.106-.134.152 23.361 14.538 52.436 19.043 79.23 13.115 1.312-.428 5.565-.982 5.207-1.49.22.023.405.058.627.083.12-.7 26.746 2.858 46.385-5.104 19.028-7.714 31.447-22.158 34.079-37.151 10.815-61.617-50.434-66.509-58.461-69.01-6.126-1.66-12.252-3.32-18.378-4.982-3.476-8.692-8.116-17.201-14.052-26.505a60.438 60.438 0 0 0-13.092-14.63c.012.01.068.048.079.058 0 0 1.8-5.688 8.65-11.582 1.383-1.103 24.438-18.72 66.363-.882l2.957 28.573 19.047-.985-2.3-38.75c-6.734-7.891-63.9-31.612-105.18-.12-6.062 5.25-9.862 12.557-9.862 12.557.042.012.098.047.14.07-6.958-2.481-13.891-3.852-20.19-4.586-.005-.023-.009-.048-.012-.071 0 0-8.014-22.062-22.612-29.419-4.697-2.367-9.192-3.62-13.967-3.79V.02ZM182.15 103.236Zm-67.66 1.733c6.196 10.405 10.715 19.72 12.685 31.257-.97 7.005-2.434 13.939-4.55 20.476 0 0-5.278-3.194-12.855-7.616 1.396-8.822 2.347-18.289 3.474-28.604.374-5.018.811-10.304 1.247-15.513Zm68.882 3.7c.045.238.11.472.152.711.258 1.334.469 2.714.706 4.052 6.631 1.865 13.292 3.688 19.923 5.554 0 0 32.804 6.392 27.8 39.475-4.71 31.147-51.71 28.689-51.544 27.648 5.629-35.167 6.737-58.12 2.963-77.44Z"/></svg>
